austria/municipalities/61007.svg

<?xml version="1.0" encoding="UTF-8" standalone="no"?>
<!-- Created with Inkscape (http://www.inkscape.org/) -->

<svg
   xml:space="preserve"
   id="svg11947"
   version="1.1"
   viewBox="0 0 31.75 38.1"
   width="120"
   height="144"
   sodipodi:docname="AUT_Empersdorf_COA.svg"
   inkscape:version="1.2 (dc2aeda, 2022-05-15)"
   xmlns:inkscape="http://www.inkscape.org/namespaces/inkscape"
   xmlns:sodipodi="http://sodipodi.sourceforge.net/DTD/sodipodi-0.dtd"
   xmlns="http://www.w3.org/2000/svg"
   xmlns:svg="http://www.w3.org/2000/svg"><sodipodi:namedview
     id="namedview198"
     pagecolor="#ffffff"
     bordercolor="#000000"
     borderopacity="0.25"
     inkscape:showpageshadow="2"
     inkscape:pageopacity="0.0"
     inkscape:pagecheckerboard="0"
     inkscape:deskcolor="#d1d1d1"
     inkscape:document-units="px"
     showgrid="false"
     inkscape:zoom="1.9991732"
     inkscape:cx="26.51096"
     inkscape:cy="30.262511"
     inkscape:window-width="1390"
     inkscape:window-height="1205"
     inkscape:window-x="2240"
     inkscape:window-y="25"
     inkscape:window-maximized="0"
     inkscape:current-layer="svg11947" /><defs
     id="defs11944"><linearGradient
       id="s_Salbe_Schwarz"
       inkscape:swatch="solid"><stop
         style="stop-color:#000000;stop-opacity:1;"
         offset="0"
         id="stop3747" /></linearGradient><linearGradient
       id="a_Argent_Silber"
       inkscape:swatch="solid"><stop
         style="stop-color:#ffffff;stop-opacity:1;"
         offset="0"
         id="stop3741" /></linearGradient><linearGradient
       id="A_Argent-dark_Silber-dunkel"
       inkscape:swatch="solid"><stop
         style="stop-color:#e7e7e7;stop-opacity:1;"
         offset="0"
         id="stop3735" /></linearGradient><linearGradient
       id="g_Gules_Rot"
       inkscape:swatch="solid"><stop
         style="stop-color:#da121a;stop-opacity:1;"
         offset="0"
         id="stop3729" /></linearGradient><linearGradient
       id="o_Or_Gold"
       inkscape:swatch="solid"><stop
         style="stop-color:#fcdd09;stop-opacity:1;"
         offset="0"
         id="stop3723" /></linearGradient><linearGradient
       id="b_Azure_Blau"
       inkscape:swatch="solid"><stop
         style="stop-color:#0f47af;stop-opacity:1;"
         offset="0"
         id="stop3717" /></linearGradient><linearGradient
       id="B_Bleu-celeste_Hellblau"
       inkscape:swatch="solid"><stop
         style="stop-color:#4d87ca;stop-opacity:1;"
         offset="0"
         id="stop3711" /></linearGradient><linearGradient
       id="B_Bleu-celeste-alt_Hellblau-alt"
       inkscape:swatch="solid"><stop
         style="stop-color:#89c5e3;stop-opacity:1;"
         offset="0"
         id="stop3705" /></linearGradient><linearGradient
       id="v_Vert_Gruen"
       inkscape:swatch="solid"><stop
         style="stop-color:#078930;stop-opacity:1;"
         offset="0"
         id="stop3699" /></linearGradient><linearGradient
       id="c_Carnation_Fleischfarbe"
       inkscape:swatch="solid"><stop
         style="stop-color:#f2a772;stop-opacity:1;"
         offset="0"
         id="stop3693" /></linearGradient><linearGradient
       id="p_Purpure_Purpur"
       inkscape:swatch="solid"><stop
         style="stop-color:#9116a1;stop-opacity:1;"
         offset="0"
         id="stop3687" /></linearGradient><linearGradient
       id="t_Tenne_Braun"
       inkscape:swatch="solid"><stop
         style="stop-color:#9d5333;stop-opacity:1;"
         offset="0"
         id="stop3681" /></linearGradient><linearGradient
       id="C_Cendre_Eisen"
       inkscape:swatch="solid"><stop
         style="stop-color:#999999;stop-opacity:1;"
         offset="0"
         id="stop3675" /></linearGradient><linearGradient
       id="Murray_Maulbeere"
       inkscape:swatch="solid"><stop
         style="stop-color:#630727;stop-opacity:1;"
         offset="0"
         id="stop3669" /></linearGradient><linearGradient
       id="Rose_Rosa"
       inkscape:swatch="solid"><stop
         style="stop-color:#e63d6a;stop-opacity:1;"
         offset="0"
         id="stop2937" /></linearGradient><linearGradient
       id="Orange_Orange"
       inkscape:swatch="solid"><stop
         style="stop-color:#ed5f00;stop-opacity:1;"
         offset="0"
         id="stop2931" /></linearGradient><linearGradient
       id="Buff_Leder"
       inkscape:swatch="solid"><stop
         style="stop-color:#ddc595;stop-opacity:1;"
         offset="0"
         id="stop2925" /></linearGradient><linearGradient
       id="Copper_Kupfer"
       inkscape:swatch="solid"><stop
         style="stop-color:#953d02;stop-opacity:1;"
         offset="0"
         id="stop1435" /></linearGradient></defs><g
     inkscape:groupmode="layer"
     id="layer1"
     inkscape:label="Wappen"><path
       d="M 2e-7,3.1e-6 V 22.225003 c 0,8.767498 7.107502,15.875 15.8749998,15.875 8.767498,0 15.875,-7.107502 15.875,-15.875 V 3.1e-6 Z"
       id="path11658"
       style="stroke-width:0.264583"
       inkscape:label="Schildrand"
       sodipodi:nodetypes="cssscc" /><path
       id="rect11660"
       style="fill:#0f47af;fill-opacity:1;stroke-width:0.529167;stroke-dasharray:none;stroke:none"
       d="M 0.5291666,0.52916659 V 19.314584 22.225 c 0,8.474861 6.8709732,15.345833 15.3458334,15.345833 8.474861,0 15.345833,-6.870972 15.345833,-15.345833 V 19.314584 0.52916659 Z"
       inkscape:label="Schild"
       sodipodi:nodetypes="ccsssccc" /><path
       id="rect1109"
       style="opacity:1;fill:#ffffff;stroke:#000000;stroke-width:0.264583;paint-order:fill markers stroke"
       d="M 14.537614 2.5450643 C 14.083797 2.5409715 13.59404 3.0711842 13.621908 4.0162923 C 13.621908 4.0162923 14.3133 3.0057443 14.53193 3.4726562 C 14.750557 3.9395683 14.218279 4.3463229 14.093197 4.8245117 C 14.003994 5.1655295 14.270927 5.8221192 14.970662 6.1706828 L 14.970662 10.715625 L 10.860836 10.715625 C 10.512325 10.015733 9.8557492 9.7489388 9.5146647 9.8381592 C 9.0364752 9.9632431 8.6297218 10.495004 8.1628092 10.276375 C 7.6958977 10.057746 8.7064453 9.3668701 8.7064453 9.3668701 C 7.2311548 9.3233702 6.7665855 10.54111 7.7674845 10.914579 C 8.9817903 11.367677 9.5906291 10.379945 9.5906291 11.774475 C 9.5906291 13.169004 8.9817903 12.18179 7.7674845 12.634888 C 7.4077869 12.769104 7.2375133 13.012311 7.2352173 13.26689 C 7.2311173 13.720707 7.7613373 14.210465 8.7064453 14.182597 C 8.7064453 14.182597 7.6958977 13.491205 8.1628092 13.272575 C 8.6297218 13.053947 9.0364752 13.586225 9.5146647 13.711308 C 9.8556823 13.800511 10.512272 13.533577 10.860836 12.833842 L 14.970662 12.833842 L 14.970662 20.636466 L 8.316805 20.636466 C 7.968294 19.936575 7.3117184 19.66978 6.970634 19.759001 C 6.4924444 19.884085 6.085691 20.415846 5.6187785 20.197217 C 5.1518669 19.978587 6.1624146 19.287712 6.1624146 19.287712 C 4.687124 19.244212 4.2225548 20.461951 5.2234538 20.835421 C 6.4377596 21.288518 7.0465983 20.300787 7.0465983 21.695317 C 7.0465983 23.089845 6.4377596 22.102632 5.2234538 22.555729 C 4.8637561 22.689945 4.6934825 22.933152 4.6911865 23.187732 C 4.6870865 23.641548 5.2173065 24.131306 6.1624146 24.103438 C 6.1624146 24.103438 5.1518669 23.412046 5.6187785 23.193416 C 6.085691 22.974789 6.4924444 23.507066 6.970634 23.632149 C 7.3116948 23.721363 7.9682754 23.454617 8.316805 22.754683 L 14.970662 22.754683 L 14.970662 34.925 L 17.088879 34.925 L 17.088879 22.754683 L 23.743254 22.754683 C 24.091765 23.454575 24.74834 23.72137 25.089425 23.632149 C 25.567614 23.507065 25.974368 22.975304 26.44128 23.193933 C 26.908192 23.412563 25.897644 24.103438 25.897644 24.103438 C 27.372935 24.146938 27.837504 22.929199 26.836605 22.555729 C 25.622299 22.102632 25.01346 23.090363 25.01346 21.695833 C 25.01346 20.301305 25.622299 21.288518 26.836605 20.835421 C 27.196302 20.701205 27.366576 20.457998 27.368872 20.203418 C 27.372972 19.749601 26.842752 19.259844 25.897644 19.287712 C 25.897644 19.287712 26.908192 19.979104 26.44128 20.197734 C 25.974368 20.416361 25.567614 19.884084 25.089425 19.759001 C 24.748407 19.669798 24.091817 19.936731 23.743254 20.636466 L 17.088879 20.636466 L 17.088879 12.833842 L 21.198706 12.833842 C 21.5472 13.533834 22.203771 13.800534 22.544877 13.711308 C 23.023067 13.586224 23.42982 13.054463 23.896733 13.273092 C 24.363644 13.491721 23.353097 14.182597 23.353097 14.182597 C 24.828387 14.226097 25.292956 13.008357 24.292057 12.634888 C 23.077752 12.18179 22.468913 13.169521 22.468913 11.774992 C 22.468913 10.380463 23.077752 11.367677 24.292057 10.914579 C 24.651755 10.780363 24.822029 10.537156 24.824325 10.282576 C 24.828425 9.8287597 24.298205 9.3390021 23.353097 9.3668701 C 23.353097 9.3668701 24.363644 10.058262 23.896733 10.276892 C 23.42982 10.49552 23.023067 9.9632421 22.544877 9.8381592 C 22.203872 9.7489594 21.547796 10.015945 21.199223 10.715625 L 17.088879 10.715625 L 17.088879 6.1706828 C 17.788771 5.8221717 18.055566 5.1655963 17.966345 4.8245117 C 17.841261 4.3463229 17.3095 3.9395683 17.528129 3.4726562 C 17.746759 3.0057443 18.437634 4.0162923 18.437634 4.0162923 C 18.481134 2.5410016 17.263395 2.0764326 16.889925 3.0773315 C 16.436828 4.2916372 17.424559 4.9004761 16.030029 4.9004761 C 14.635501 4.9004761 15.622714 4.2916372 15.169617 3.0773315 C 15.035401 2.7176335 14.792194 2.5473602 14.537614 2.5450643 z " /><g
       id="g1535"
       transform="translate(-0.2363292)"><g
         id="g1513"><path
           id="path1482"
           style="fill:#ffffff;stroke:#000000;stroke-width:0.264583;stroke-linecap:butt;stroke-linejoin:round;paint-order:fill markers stroke"
           d="m 10.086206,25.567948 c -0.5951798,0.0013 -1.2035906,0.203135 -1.7006713,0.700216 l -2.4825358,2.482019 1.0376627,1.037663 1.8029907,-1.802991 c 0.5433926,-0.543392 1.0991202,-1.34621 2.0624067,-0.382922 0.963288,0.963286 0.16047,1.519014 -0.382923,2.062406 l -1.8029903,1.802991 1.0376627,1.037663 2.4820186,-2.482536 c 1.136185,-1.136185 0.728791,-2.852904 -0.0863,-3.667993 -0.458488,-0.458489 -1.202091,-0.788144 -1.967322,-0.786516 z" /><path
           style="fill:#ffffff;stroke:#000000;stroke-width:0.264583;stroke-linecap:butt;stroke-linejoin:round;paint-order:fill markers stroke"
           d="m 7.4151785,28.237399 -0.02986,0.507617 -0.3782237,0.06967 -0.348364,-0.218969 0.4678032,-0.557385 z"
           id="path1484"
           sodipodi:nodetypes="cccccc" /><path
           style="fill:#ffffff;stroke:#000000;stroke-width:0.264583;stroke-linecap:butt;stroke-linejoin:round;paint-order:fill markers stroke"
           d="m 10.170614,30.992834 -0.507617,0.02986 -0.06967,0.378224 0.218969,0.348364 0.557385,-0.467803 z"
           id="path1495"
           sodipodi:nodetypes="cccccc" /><path
           id="path1497"
           style="fill:none;stroke:#000000;stroke-width:0.264583;stroke-linecap:butt;stroke-linejoin:round;paint-order:fill markers stroke"
           d="m 12.554857,27.078148 -0.463263,0.421092 -0.511785,-0.671035 -0.671036,-0.511786 0.421092,-0.463263"
           sodipodi:nodetypes="ccccc" /></g><g
         id="g1523"
         transform="matrix(-1,0,0,1,32.222658,0)"><path
           id="path1515"
           style="fill:#ffffff;stroke:#000000;stroke-width:0.264583;stroke-linecap:butt;stroke-linejoin:round;paint-order:fill markers stroke"
           d="m 10.086206,25.567948 c -0.5951798,0.0013 -1.2035906,0.203135 -1.7006713,0.700216 l -2.4825358,2.482019 1.0376627,1.037663 1.8029907,-1.802991 c 0.5433926,-0.543392 1.0991202,-1.34621 2.0624067,-0.382922 0.963288,0.963286 0.16047,1.519014 -0.382923,2.062406 l -1.8029903,1.802991 1.0376627,1.037663 2.4820186,-2.482536 c 1.136185,-1.136185 0.728791,-2.852904 -0.0863,-3.667993 -0.458488,-0.458489 -1.202091,-0.788144 -1.967321,-0.786516 z" /><path
           style="fill:#ffffff;stroke:#000000;stroke-width:0.264583;stroke-linecap:butt;stroke-linejoin:round;paint-order:fill markers stroke"
           d="m 7.4151785,28.237399 -0.02986,0.507617 -0.3782237,0.06967 -0.348364,-0.218969 0.4678032,-0.557385 z"
           id="path1517"
           sodipodi:nodetypes="cccccc" /><path
           style="fill:#ffffff;stroke:#000000;stroke-width:0.264583;stroke-linecap:butt;stroke-linejoin:round;paint-order:fill markers stroke"
           d="m 10.170614,30.992834 -0.507617,0.02986 -0.06967,0.378224 0.218969,0.348364 0.557385,-0.467803 z"
           id="path1519"
           sodipodi:nodetypes="cccccc" /><path
           id="path1521"
           style="fill:none;stroke:#000000;stroke-width:0.264583;stroke-linecap:butt;stroke-linejoin:round;paint-order:fill markers stroke"
           d="m 12.554857,27.078148 -0.463263,0.421092 -0.511785,-0.671035 -0.671036,-0.511786 0.421092,-0.463263"
           sodipodi:nodetypes="ccccc" /></g></g></g></svg>

<svg xml:space="preserve" viewBox="0 0 31.75 38.1" width="120" height="144" xmlns="http://www.w3.org/2000/svg"><path d="M0 0v22.225C0 30.993 7.108 38.1 15.875 38.1S31.75 30.993 31.75 22.225V0z" style="stroke-width:.264583"/><path style="fill:#0f47af;fill-opacity:1;stroke-width:.529167;stroke-dasharray:none;stroke:none" d="M.53.53v21.695c0 8.475 6.87 15.346 15.345 15.346 8.475 0 15.346-6.871 15.346-15.346V.529z"/><path style="opacity:1;fill:#fff;stroke:#000;stroke-width:.264583;paint-order:fill markers stroke" d="M14.538 2.545c-.454-.004-.944.526-.916 1.471 0 0 .691-1.01.91-.543.219.467-.314.873-.439 1.352-.089.34.178.997.878 1.346v4.545h-4.11c-.349-.7-1.005-.967-1.346-.878-.479.125-.885.657-1.352.438-.467-.218.543-.91.543-.91-1.475-.043-1.94 1.175-.939 1.549 1.215.453 1.824-.535 1.824.86 0 1.394-.61.407-1.824.86-.36.134-.53.377-.532.632-.004.454.526.943 1.471.916 0 0-1.01-.692-.543-.91.467-.22.873.313 1.352.438.34.09.997-.177 1.346-.877h4.11v7.802H8.317c-.349-.7-1.005-.966-1.346-.877-.479.125-.885.657-1.352.438-.467-.218.543-.91.543-.91-1.475-.043-1.94 1.175-.939 1.548 1.215.454 1.824-.534 1.824.86 0 1.395-.61.408-1.824.86-.36.135-.53.378-.532.633-.004.454.526.943 1.471.915 0 0-1.01-.691-.543-.91.467-.218.873.314 1.352.44.34.088.997-.178 1.346-.878h6.654v12.17h2.118v-12.17h6.654c.349.7 1.005.966 1.346.877.479-.125.885-.657 1.352-.438.467.219-.543.91-.543.91 1.475.043 1.94-1.175.939-1.548-1.215-.453-1.824.534-1.824-.86 0-1.395.61-.407 1.824-.86.36-.135.53-.378.532-.633.004-.453-.526-.943-1.471-.915 0 0 1.01.691.543.91-.467.218-.873-.314-1.352-.439-.34-.09-.997.178-1.346.877H17.09v-7.802h4.11c.348.7 1.005.967 1.346.877.478-.125.885-.657 1.352-.438.467.219-.544.91-.544.91 1.475.043 1.94-1.175.94-1.548-1.215-.453-1.824.535-1.824-.86s.609-.407 1.823-.86c.36-.135.53-.378.532-.632.004-.454-.526-.944-1.47-.916 0 0 1.01.691.543.91-.467.219-.874-.314-1.352-.439-.341-.089-.997.178-1.346.878h-4.11V6.17c.7-.349.967-1.005.877-1.346-.125-.479-.657-.885-.438-1.352.219-.467.91.543.91.543.043-1.475-1.175-1.94-1.548-.939-.453 1.215.535 1.823-.86 1.823-1.394 0-.407-.608-.86-1.823-.135-.36-.378-.53-.632-.532z"/><path style="fill:#fff;stroke:#000;stroke-width:.264583;stroke-linecap:butt;stroke-linejoin:round;paint-order:fill markers stroke" d="M10.086 25.568a2.364 2.364 0 0 0-1.7.7L5.903 28.75l1.038 1.038 1.803-1.803c.543-.544 1.099-1.346 2.062-.383.963.963.16 1.519-.383 2.062L8.62 31.467l1.038 1.038 2.482-2.483c1.136-1.136.729-2.852-.086-3.668-.459-.458-1.203-.788-1.968-.786z" transform="translate(-.236)"/><path style="fill:#fff;stroke:#000;stroke-width:.264583;stroke-linecap:butt;stroke-linejoin:round;paint-order:fill markers stroke" d="m7.415 28.237-.03.508-.378.07-.348-.22.468-.557zM10.17 30.993l-.507.03-.07.378.22.348.557-.468z" transform="translate(-.236)"/><path style="fill:none;stroke:#000;stroke-width:.264583;stroke-linecap:butt;stroke-linejoin:round;paint-order:fill markers stroke" d="m12.555 27.078-.463.421-.512-.67-.671-.513.42-.463" transform="translate(-.236)"/><g><path style="fill:#fff;stroke:#000;stroke-width:.264583;stroke-linecap:butt;stroke-linejoin:round;paint-order:fill markers stroke" d="M10.086 25.568a2.364 2.364 0 0 0-1.7.7L5.903 28.75l1.038 1.038 1.803-1.803c.543-.544 1.099-1.346 2.062-.383.963.963.16 1.519-.383 2.062L8.62 31.467l1.038 1.038 2.482-2.483c1.136-1.136.729-2.852-.086-3.668-.459-.458-1.203-.788-1.968-.786z" transform="matrix(-1 0 0 1 31.986 0)"/><path style="fill:#fff;stroke:#000;stroke-width:.264583;stroke-linecap:butt;stroke-linejoin:round;paint-order:fill markers stroke" d="m7.415 28.237-.03.508-.378.07-.348-.22.468-.557zM10.17 30.993l-.507.03-.07.378.22.348.557-.468z" transform="matrix(-1 0 0 1 31.986 0)"/><path style="fill:none;stroke:#000;stroke-width:.264583;stroke-linecap:butt;stroke-linejoin:round;paint-order:fill markers stroke" d="m12.555 27.078-.463.421-.512-.67-.671-.513.42-.463" transform="matrix(-1 0 0 1 31.986 0)"/></g></svg>
